components/Common/Svg/svgs/time.svg

<svg
  width="155"
  height="51"
  viewBox="0 0 155 51"
  fill="none"
  xmlns="http://www.w3.org/2000/svg"
>
  <path
    opacity="0.5"
    fill-rule="evenodd"
    clip-rule="evenodd"
    d="M154.394 10.0369L153.713 10.0392L153.706 9.68326C153.635 8.79925 153.487 6.29926 153.298 4.19649C153.282 4.00908 153.251 3.86174 153.251 3.86174C152.843 3.84878 151.18 3.79574 151.153 3.76745C151.126 3.74269 149.8 3.72501 149.773 3.70969C149.76 3.7038 145.411 3.67669 140.929 3.67433C137.869 3.67079 134.859 3.68965 133.013 3.68965C132.56 3.68847 130.931 3.75212 130.931 3.75212L130.923 23.7084L143.735 23.752C143.795 23.752 147.128 23.6483 147.21 23.6495C147.412 23.6518 149.699 23.5186 149.786 23.488C149.786 23.488 149.82 23.2782 149.874 23.1273C150.059 21.9192 150.296 20.7723 150.353 19.8765C150.353 19.8765 150.414 19.4923 150.418 19.2341L151.146 19.2176C151.146 19.3119 151.183 19.5406 151.18 19.8671C151.173 21.0693 151.086 23.567 151.088 25.2053C151.092 27.5615 151.157 29.6902 151.17 30.7558C151.18 31.061 151.159 31.5467 151.159 31.5467H150.36C150.347 31.4347 150.333 31.318 150.316 31.1942C150.175 29.8352 150.059 28.8758 149.847 27.4908C149.84 27.4201 149.8 27.1702 149.784 27.0099C149.375 26.9804 148.295 26.9451 147.722 26.9286C147.473 26.9203 144.349 26.8979 140.834 26.892C139.393 26.8897 136.806 26.958 135.71 26.9557C134.425 26.9557 132.303 27.037 130.918 27.0877L130.931 45.1852L130.987 47.5166L138.766 47.651L149.844 47.6416C149.894 47.6416 152.38 47.5414 153.157 47.5567C153.322 47.5603 153.653 47.5308 153.653 47.5308C153.726 46.9462 153.818 45.7616 153.909 44.6324C153.916 44.498 154.193 41.4959 154.193 40.6897L154.874 40.6815C154.874 41.4441 154.729 50.9254 154.729 50.9254C153.48 50.9254 149.648 50.9219 144.916 50.8523C142.045 50.8087 138.847 50.8122 135.693 50.7651C133.133 50.7286 130.602 50.6366 128.298 50.6402C125.018 50.6437 121.803 50.8594 120.555 50.8606C120.271 50.8606 119.767 50.8405 119.657 50.8405V49.6489H119.886C120.655 49.6453 122.918 49.5098 124.099 49.2906C124.099 49.0513 124.177 46.0987 124.177 46.0386C124.177 46.0386 124.171 8.56587 124.171 6.88506C124.171 5.07461 124.139 2.05718 124.139 1.78962C123.472 1.71064 123.234 1.66939 123.094 1.63992C122.385 1.53973 120.988 1.41833 120.24 1.36411C120.027 1.37 119.795 1.34172 119.681 1.32168C119.681 1.32168 119.677 0.150067 119.67 0.133565C119.841 0.142995 120.19 0.117064 120.817 0.1206C122.138 0.126493 124.568 0.320976 127.538 0.324512C129.404 0.326869 132.414 0.234932 134.569 0.207822C137.646 0.207822 139.98 0.178355 142.96 0.159496C147.82 0.126493 151.972 0.0923112 153.595 0.0828818C154.071 0.0817031 154.331 0.0793457 154.331 0.0793457C154.331 0.17364 154.327 0.279722 154.327 0.401126C154.327 0.777126 154.311 1.43955 154.316 2.2493C154.334 4.77286 154.394 8.74149 154.394 10.0369ZM72.6446 17.0195C72.6446 17.0195 71.5226 23.2252 69.9033 31.9805C69.0441 36.7105 67.2668 48.5398 67.1478 49.3213C68.1719 49.4733 70.1897 49.6384 70.7389 49.6195C70.865 49.6195 71.0807 49.6242 71.2398 49.6242L71.2374 50.8229C71.0088 50.8524 70.4725 50.8559 70.4501 50.8559C68.5067 50.8159 67.1065 50.6673 65.0098 50.6673C64.4571 50.6673 61.5413 50.8194 60.5136 50.8547C60.0857 50.8724 59.4788 50.8253 59.3633 50.8312L59.3656 49.6454C59.4658 49.6454 59.6685 49.603 59.7982 49.5995C60.7281 49.557 62.1589 49.4144 63.3704 49.2553C63.4694 48.673 64.5172 42.8421 64.8507 40.7758C66.1377 33.9395 69.9327 11.0989 70.4065 8.01786C70.8226 4.69161 71.307 0.554431 71.3517 0.0982807C72.3571 0.115961 74.0919 0.0758857 74.0919 0.0758857C74.0919 0.0758857 77.4509 10.5108 77.9954 12.0383C78.541 13.5659 88.8029 39.9696 88.8029 39.9696C88.8029 39.9696 93.6197 28.5941 97.9133 16.3865C98.7819 13.9148 99.9216 10.6923 100.762 8.08268C101.991 4.26375 103.342 0.074707 103.342 0.074707H105.983C105.983 0.074707 106.638 4.73876 106.87 6.81324C107.546 12.8575 111.957 37.4154 113.507 45.4917C113.894 47.5132 114.187 49.2623 114.187 49.2623C114.643 49.2942 116.427 49.471 117.485 49.5594C117.705 49.5771 118.299 49.6112 118.435 49.6112L118.44 50.8276C118.44 50.8276 117.958 50.8524 117.696 50.8524C115.329 50.8371 111.642 50.6249 109.367 50.6249C107.343 50.6249 105.396 50.7982 103.372 50.843C103.028 50.85 102.681 50.8324 102.331 50.8324V49.6277C102.34 49.6266 102.61 49.6112 102.751 49.616C103.74 49.5712 106.361 49.313 106.621 49.3012C106.623 48.8592 106.479 47.3293 106.267 45.7652C106.119 44.6619 105.869 42.7784 105.602 40.9196C105.026 37.3081 102.359 22.3412 101.566 18.1864C101.435 17.5051 101.354 17.1232 101.354 17.1232C101.354 17.1232 93.0905 38.323 91.424 42.5002C91.2626 42.9092 91.1459 43.198 91.107 43.2947C89.5147 47.3175 88.1794 50.9031 88.1794 50.9031L85.8282 50.8901L72.9511 17.7903L72.6446 17.0195ZM56.9889 50.8668C55.2446 50.8668 52.2805 50.5769 50.0601 50.5769C47.8644 50.5769 44.8838 50.8668 42.7388 50.8668C42.5561 50.8668 42.2343 50.8256 42.0575 50.8256V49.6221C42.4818 49.6127 44.3782 49.4394 44.905 49.4005C45.5226 49.3558 46.0942 49.3251 46.3487 49.2426C46.3487 49.2426 46.3535 47.7893 46.3605 45.5404C46.3841 37.7587 46.4301 15.7633 46.357 5.81165C46.3499 4.76144 46.3428 2.09998 46.3428 1.71455C45.941 1.67447 45.3788 1.62025 44.9769 1.56721C44.4748 1.5401 42.4029 1.34208 42.0481 1.32205L42.0352 0.117432C44.0918 0.117432 47.1419 0.327237 49.6193 0.327237C51.9859 0.327237 55.1963 0.117432 57.6265 0.117432L57.6218 1.37391C57.2364 1.39984 56.2983 1.45877 56.2676 1.46231C55.5593 1.52949 53.5769 1.75344 53.089 1.7888C53.089 2.53845 53.089 3.93637 53.089 5.66078C53.0878 14.5716 53.0784 37.8872 53.0749 45.7372C53.0749 46.7638 53.0749 47.7127 53.0749 48.282C53.0749 48.8807 53.0784 49.2426 53.0843 49.2638C53.0961 49.3098 54.3395 49.4253 54.6259 49.443C55.1739 49.5066 57.4297 49.6068 57.4981 49.6221H57.6501L57.6489 50.8256C57.5004 50.8256 57.1409 50.8668 56.9889 50.8668ZM16.8536 3.63928L12.355 3.61924H5.38256C4.89817 3.61924 1.15855 3.65578 1.15855 3.65578L1.09255 9.70243L0.410156 9.72247L0.451406 2.92618L0.426656 0.133877C2.80384 0.249388 11.3898 0.324824 20.2986 0.324824C30.6877 0.324824 37.3809 0.219921 40.0067 0.142128L39.9761 3.23499L40.0315 10.1103L39.3231 10.1032C39.329 9.54213 39.2076 7.2602 39.2147 7.03743C39.2183 6.95374 39.0662 3.89034 39.045 3.6605L36.062 3.61924L27.1249 3.61807L23.7 3.63103L23.7047 46.0424C23.7047 46.099 23.7695 48.8218 23.7813 49.3875C24.1254 49.4359 27.4372 49.6657 28.0359 49.6657L28.2705 49.6622V50.8196C28.0925 50.8196 27.8709 50.8373 27.6871 50.8361C25.8049 50.8161 22.7677 50.5898 20.6086 50.5898C18.4848 50.5898 15.4877 50.7984 13.2719 50.8326C13.213 50.835 12.7593 50.8243 12.5872 50.8161L12.5825 49.5844C12.6049 49.5844 12.7416 49.5808 12.949 49.5749C13.8848 49.5372 16.1901 49.3816 16.7912 49.331L16.8843 49.318L16.8536 3.63928V3.63928Z"
    fill="#171717"
  ></path>
</svg>

<svg width="155" height="51" viewBox="0 0 155 51" fill="none" xmlns="http://www.w3.org/2000/svg"><path opacity=".5" fill-rule="evenodd" clip-rule="evenodd" d="m154.394 10.037-.681.002-.007-.356c-.071-.884-.219-3.384-.408-5.487-.016-.187-.047-.334-.047-.334-.408-.013-2.071-.066-2.098-.095-.027-.024-1.353-.042-1.38-.057-.013-.006-4.362-.033-8.844-.036-3.06-.003-6.07.016-7.916.016-.453-.002-2.082.062-2.082.062l-.008 19.956 12.812.044c.06 0 3.393-.104 3.475-.102.202.002 2.489-.131 2.576-.162 0 0 .034-.21.088-.36.185-1.209.422-2.356.479-3.252 0 0 .061-.384.065-.642l.728-.016c0 .094.037.323.034.65-.007 1.201-.094 3.699-.092 5.337.004 2.357.069 4.485.082 5.55.01.306-.011.792-.011.792h-.799a16.764 16.764 0 0 0-.044-.353 69.162 69.162 0 0 0-.469-3.703c-.007-.07-.047-.32-.063-.481a72.724 72.724 0 0 0-2.062-.081c-.249-.009-3.373-.031-6.888-.037-1.441-.002-4.028.066-5.124.064-1.285 0-3.407.081-4.792.132l.013 18.097.056 2.332 7.779.134 11.078-.01c.05 0 2.536-.1 3.313-.084.165.003.496-.026.496-.026.073-.585.165-1.77.256-2.899.007-.134.284-3.136.284-3.942l.681-.008c0 .762-.145 10.243-.145 10.243-1.249 0-5.081-.003-9.813-.073-2.871-.043-6.069-.04-9.223-.087-2.56-.036-5.091-.128-7.395-.125-3.28.004-6.495.22-7.743.22-.284 0-.788-.02-.898-.02V49.65h.229c.769-.004 3.032-.14 4.213-.358 0-.24.078-3.192.078-3.252l-.006-39.154c0-1.81-.032-4.828-.032-5.095-.667-.08-.905-.12-1.045-.15-.709-.1-2.106-.222-2.854-.276a3.095 3.095 0 0 1-.559-.042S119.677.15 119.67.134c.171.009.52-.017 1.147-.013 1.321.005 3.751.2 6.721.204 1.866.002 4.876-.09 7.031-.117 3.077 0 5.411-.03 8.391-.049 4.86-.033 9.012-.067 10.635-.076.476-.001.736-.004.736-.004 0 .095-.004.2-.004.322 0 .376-.016 1.039-.011 1.848.018 2.524.078 6.492.078 7.788Zm-81.75 6.982s-1.121 6.206-2.74 14.962c-.86 4.73-2.637 16.559-2.756 17.34 1.024.152 3.042.317 3.59.299.127 0 .343.004.502.004l-.003 1.199a9.55 9.55 0 0 1-.787.033c-1.943-.04-3.344-.189-5.44-.189-.553 0-3.469.152-4.496.188-.428.017-1.035-.03-1.15-.024l.002-1.186c.1 0 .303-.042.432-.046.93-.042 2.36-.185 3.572-.344.1-.582 1.147-6.413 1.48-8.48 1.288-6.835 5.083-29.676 5.556-32.757.417-3.326.901-7.464.946-7.92 1.005.018 2.74-.022 2.74-.022s3.359 10.435 3.903 11.962c.546 1.528 10.808 27.932 10.808 27.932s4.817-11.376 9.11-23.583c.869-2.472 2.009-5.695 2.849-8.304 1.229-3.82 2.58-8.008 2.58-8.008h2.641s.655 4.664.887 6.738c.676 6.045 5.087 30.602 6.637 38.679.387 2.021.68 3.77.68 3.77.456.032 2.24.209 3.298.297.22.018.814.052.95.052l.005 1.217s-.482.024-.744.024c-2.367-.015-6.054-.227-8.329-.227-2.024 0-3.971.173-5.995.218-.344.007-.691-.01-1.041-.01v-1.205c.009-.001.279-.017.42-.012.989-.045 3.61-.303 3.87-.315.002-.442-.142-1.972-.354-3.536-.148-1.103-.398-2.987-.665-4.845-.576-3.612-3.243-18.579-4.036-22.734-.131-.68-.212-1.063-.212-1.063s-8.263 21.2-9.93 25.377c-.161.41-.278.698-.317.795-1.592 4.023-2.928 7.608-2.928 7.608l-2.35-.013-12.878-33.1-.306-.77ZM56.99 50.867c-1.744 0-4.708-.29-6.929-.29-2.196 0-5.176.29-7.321.29-.183 0-.505-.041-.681-.041v-1.204c.424-.01 2.32-.183 2.847-.221.618-.045 1.19-.076 1.444-.158l.012-3.703c.023-7.781.07-29.777-.004-39.728-.007-1.05-.014-3.712-.014-4.097-.402-.04-.964-.095-1.366-.148-.502-.027-2.574-.225-2.929-.245L42.035.117c2.057 0 5.107.21 7.584.21 2.367 0 5.577-.21 8.008-.21l-.005 1.257c-.386.026-1.324.085-1.354.088-.709.067-2.691.291-3.179.327V5.66c-.001 8.91-.01 32.226-.014 40.076v2.545c0 .599.003.96.01.982.011.046 1.255.161 1.54.179.549.064 2.805.164 2.873.18h.152l-.001 1.203c-.149 0-.508.04-.66.04ZM16.854 3.639l-4.499-.02H5.383c-.485 0-4.224.037-4.224.037l-.066 6.046-.683.02.041-6.796L.427.134c2.377.115 10.963.19 19.872.19C30.688.325 37.38.22 40.007.143l-.03 3.093.055 6.875-.709-.007c.006-.56-.115-2.843-.108-3.066.003-.083-.149-3.147-.17-3.377l-2.983-.04-8.937-.002-3.425.013.005 42.411c0 .057.065 2.78.076 3.346.344.048 3.656.278 4.255.278l.234-.004v1.158c-.177 0-.4.017-.583.016-1.882-.02-4.92-.246-7.078-.246-2.124 0-5.121.208-7.337.243-.059.002-.513-.009-.685-.017l-.005-1.232c.023 0 .16-.003.367-.01.936-.037 3.241-.192 3.842-.243l.093-.013-.03-45.679Z" fill="#171717"/></svg>
